X:17
T:Weavers Hornpipe, The
T:TS
M:3/2
L:1/8
Q:1/2=110
S:D.Wright, Extraordinary Collection, London 1713
Z:Pete Stewart, 2004 <www.hornpipemusic.co.uk>
K:D
"6/4 in book"D2A2ABAF ABAF | E2g4Bc dcBA | D2B2ABAF ABAF | D2d4Bc dcBA ||
d2cB FGAFE4 | E2g4cc dcBA | d2 cB FGAFE4 | D2d4Bc dcBA ||
defga2F2E4 | E2g4Bdc2BA | defga2F2E4 | D2d4Bc dcBA ||
d2f2a2F2E4 | E2g4Bc dcBA | dfaf cdec EFGE | D2d4Bc dcBA |]

